X:53
T:THE TEW HORNPIPE
B:John of the Greeny Cheshire Way
N:\251 John Offord, Reproduced with permission
M:3/2
L:1/8
K:G
P:1
e2 dc BcdB ABcA | G2 ef g2 G2 BcdB |\
e2 dc BcdB ABcA | A2 fg a2 A2 BcdB ||
P:2
c2 e2 BcdB ABcA | G2 g2 g2 G2 BcdB |\
c2 e2 BcdB ABcA | A2 fg a2 A2 BcdB ||
P:3
cdec BcdB ABcA | G2 g2 g2 G2 BcdB |\
cdec BcdB ABcA | abag agfe BcdB ||
P:4
c2 e2 B2 d2 A2 c2 | G2 g2 d2 g2 B3 d |\
c2 e2 B2 d2 A2 c2 | A2 fg a2 A2 BcdB ||
P:5
gedc defd gedc | B2 g2 g2 G2 BcdB |\
gedc BcdB gedc | A2 fg a2 A2 BcdB ||
P:6
ga b2 fg a2 efge | d2 g2 g2 G2 BcdB |\
gabg fgaf efge | fgab a2 A2 BcdB ||
P:7
cAGF GABG cAGF | G2 g2 g2 G2 BcdB |\
cAGF GABG cAGF | A2 fg a2 A2 BcdB ||
P:8
cA F2 dc G2 cA F2 | G2 g4 G2 BcdB |\
cA F2 dB G2 cA F2 | A2 fg a2 A2 BcdB ||
P:9
c2 b2 B2 a2 A2 g2 | G2 g2 d2 g2 B3 d |\
c2 b2 B2 a2 A2 g2 | fgab a2 A2 BcdB ||
P:10
cdec BcdB ABcA | gfga gfed BcdB |\
cdec BcdB ABcA | agab a2 A2 BcdB |]
